src/Icon/svgs/LockOutlineOff.svg

<svg width="24" height="24" viewBox="0 0 24 24" fill="none" xmlns="http://www.w3.org/2000/svg">
<path fill-rule="evenodd" clip-rule="evenodd" d="M11 16.7324C10.4022 16.3866 10 15.7403 10 15C10 13.8954 10.8954 13 12 13C13.1046 13 14 13.8954 14 15C14 15.7403 13.5978 16.3866 13 16.7324V18C13 18.5523 12.5523 19 12 19C11.4477 19 11 18.5523 11 18V16.7324ZM8 10H19C19.6667 10 20 10.3333 20 11V21C20 21.6667 19.6667 22 19 22H5C4.33333 22 4 21.6667 4 21V11C4 10.3333 4.33333 10 5 10H6V7C6 3.68629 8.68629 1 12 1C15.3137 1 18 3.68629 18 7C18 7.55228 17.5523 8 17 8C16.4477 8 16 7.55228 16 7C16 4.79086 14.2091 3 12 3C9.79086 3 8 4.79086 8 7V10ZM6 12V20H18V12H6Z" fill="#1B1C1D"/>
</svg>

<svg xmlns="http://www.w3.org/2000/svg" width="24" height="24" fill="none"><path fill-rule="evenodd" d="M11 16.732A2 2 0 0 1 12 13a2 2 0 0 1 1 3.732V18a1 1 0 1 1-2 0v-1.268zM8 10h11c.667 0 1 .333 1 1v10c0 .667-.333 1-1 1H5c-.667 0-1-.333-1-1V11c0-.667.333-1 1-1h1V7a6 6 0 1 1 12 0 1 1 0 1 1-2 0 4 4 0 1 0-8 0v3zm-2 2v8h12v-8H6z" fill="#1B1C1D"/></svg>
